X:1
T:He’s blest whose sins have pardon gain’d
T:Joseph Stephenson
T:Text: Tate/Brady, on Ps. 32.
T:This edition by Edmund Gooch released into the public domain, January 2011. As such, it may be freely copied and performed.
T:He’s blest whose sins have pardon gain’d
T:Ps. 32d.
T:Copyright © 
C:Joseph Stephenson
Z:Text: Tate/Brady, on Ps. 32.
Z:Copyright ©
%%score [ 1 2 3 4 ]
L:1/8
M:4/4
K:C
V:1 treble nm="SOPRANO" snm="S."
V:2 treble nm="ALTO" snm="A."
V:3 treble-8 transpose=-12 nm="TENOR" snm="T."
V:4 bass nm="BASS" snm="B."
V:1
 z4 A4 | c2 B2 A4 | c4 d2 B2 | A4 ^G4 | A2 B2 c4 | e4 c2 B2 | c8 | z4 e4 | c2 d2 e4 | c4 B2 A2 | %10
w: Hea-|vy on me|thy hand re-|main’d By|day and night|a- like dis-|tress’d;|Till|quite of vi-|tal mois- ture|
w: He’s|blest whose sins|have par- don|gain’d, No|more in judg-|ment to ap-|pear;|Whose|guilt re- mis-|sion has ob-|
w: While|I con- ceal’d|the fret- ting|sore, My|bones con- sum’d|with- out re-|lief;|All|day did I|with an- guish|
 ^G4 A4 | B2 (cd) e4 | c4 d2 B2 | A8 |] %14
w: drain’d, Like|land with _ sum-|mer’s drought op-|press’d.|
w: tain’d, And|whose re- * pen-|tance is sin-|cere.|
w: roar, But|no com- * plaints|as- suag’d my|grief.|
V:2
 z4 E4 | E2 E2 E4 | A4 F2 E2 | E4 E4 | E2 E2 A4 | G4 G2 G2 | G8 | z4 G4 | A2 (GF) E4 | A4 F2 E2 | %10
w: Hea-|vy on me|thy hand re-|main’d By|day and night|a- like dis-|tress’d;|Till|quite of _ vi-|tal mois- ture|
w: He’s|blest whose sins|have par- don|gain’d, No|more in judg-|ment to ap-|pear;|Whose|guilt re- * mis-|sion has ob-|
w: While|I con- ceal’d|the fret- ting|sore, My|bones con- sum’d|with- out re-|lief;|All|day did _ I|with an- guish|
 E4 E4 | G2 G2 G4 | A4 F2 E2 | E8 |] %14
w: drain’d, Like|land with sum-|mer’s drought op-|press’d.|
w: tain’d, And|whose re- pen-|tance is sin-|cere.|
w: roar, But|no com- plaints|as- suag’d my|grief.|
V:3
 z4 A4 | e2 d2 c4 | A4 B2 ^G2 | A4 B4 | c2 B2 A4 | B4 c2 d2 | e8 | z4 e4 | A2 B2 c4 | e4 d2 c2 | %10
w: Hea-|vy on me|thy hand re-|main’d By|day and night|a- like dis-|tress’d;|Till|quite of vi-|tal mois- ture|
w: He’s|blest whose sins|have par- don|gain’d, No|more in judg-|ment to ap-|pear;|Whose|guilt re- mis-|sion has ob-|
w: While|I con- ceal’d|the fret- ting|sore, My|bones con- sum’d|with- out re-|lief;|All|day did I|with an- guish|
 B4 c4 | e2 B2 c4 | A4 B2 ^G2 | A8 |] %14
w: drain’d, Like|land with sum-|mer’s drought op-|press’d.|
w: tain’d, And|whose re- pen-|tance is sin-|cere.|
w: roar, But|no com- plaints|as- suag’d my|grief.|
V:4
 z4 A,4 | A,2 ^G,2 A,4 | F,4 D,2 E,2 | A,,4 E,4 | A,2 G,2 F,4 | E,4 A,2 G,2 | C,8 | %7
w: Hea-|vy on me|thy hand re-|main’d By|day and night|a- like dis-|tress’d;|
w: He’s|blest whose sins|have par- don|gain’d, No|more in judg-|ment to ap-|pear;|
w: While|I con- ceal’d|the fret- ting|sore, My|bones con- sum’d|with- out re-|lief;|
"^Emendations: The order of staves in the source is the same as in this edition: while no indication is given in the sourceof which part is the treble and which is the tenor in this piece, the first piece in the book starts with a 'Treble solo',which is printed on the first stave of the four-stave system, all other staves having rests printed.The counter part is notated in the alto clef in the source. The only indications of the text in the source are the tunetitle 'Ps 32d.' and the opening words 'He’s blest whose sins': the first four stanzas of the text have been underlaideditorially." z4 E,4 | %8
w: Till|
w: Whose|
w: All|
 F,2 (E,D,) C,4 | A,,4 B,,2 (C,D,) | E,4 A,4 | E,2 E,2 C,4 | F,4 D,2 E,2 | A,,8 |] %14
w: quite of _ vi-|tal mois- ture _|drain’d, Like|land with sum-|mer’s drought op-|press’d.|
w: guilt re- * mis-|sion has ob- *|tain’d, And|whose re- pen-|tance is sin-|cere.|
w: day did _ I|with an- guish _|roar, But|no com- plaints|as- suag’d my|grief.|

